icons/linear-new-symbol-arrow-up-share-rectangle.svg

<svg xmlns="http://www.w3.org/2000/svg" width="32px" height="32px" viewBox="0 0 32 32" version="1.1">
    <title>linear-new-symbol-arrow-up-share-rectangle</title>
    <g id="linear-new-symbol-arrow-up-share-rectangle" stroke-width="1" fill-rule="evenodd">
        <path d="M10,13 L10,15 L5,15 L5,27 L27,27 L27,15 L22,15 L22,13 L28,13 C28.5522847,13 29,13.4477153 29,14 L29,28 C29,28.5522847 28.5522847,29 28,29 L4,29 C3.44771525,29 3,28.5522847 3,28 L3,14 C3,13.4477153 3.44771525,13 4,13 L10,13 Z M15.8515331,2.0110178 L15.909968,2.00399798 L16,2 L16.0752385,2.00278786 L16.2007258,2.02024007 L16.3121425,2.04973809 L16.4232215,2.09367336 L16.5207088,2.14599545 L16.625449,2.21968877 L16.7071068,2.29289322 L22.7071068,8.29289322 C23.0976311,8.68341751 23.0976311,9.31658249 22.7071068,9.70710678 C22.3165825,10.0976311 21.6834175,10.0976311 21.2928932,9.70710678 L17,5.415 L17,21 C17,21.5522847 16.5522847,22 16,22 C15.4477153,22 15,21.5522847 15,21 L15,5.415 L10.7071068,9.70710678 C10.3466228,10.0675907 9.77939176,10.0953203 9.38710056,9.79029539 L9.29289322,9.70710678 C8.90236893,9.31658249 8.90236893,8.68341751 9.29289322,8.29289322 L15.2928932,2.29289322 C15.3282873,2.25749917 15.3656744,2.22531295 15.4046934,2.19633458 L15.5159379,2.12467117 L15.628664,2.07122549 L15.734007,2.03584514 L15.8515331,2.0110178 Z" id="&#24418;&#29366;" fill-rule="nonzero" />
    </g>
</svg>

<svg xmlns="http://www.w3.org/2000/svg" viewBox="0 0 32 32"><path fill="currentColor" d="M10 13v2H5v12h22V15h-5v-2h6a1 1 0 0 1 1 1v14a1 1 0 0 1-1 1H4a1 1 0 0 1-1-1V14a1 1 0 0 1 1-1zm5.852-10.989.058-.007L16 2l.075.003.126.017.111.03.111.044.098.052.104.074.082.073 6 6a1 1 0 1 1-1.414 1.414L17 5.415V21a1 1 0 0 1-2 0V5.415l-4.293 4.292a1 1 0 0 1-1.32.083l-.094-.083a1 1 0 0 1 0-1.414l6-6c.035-.036.073-.068.112-.097l.11-.071.114-.054.105-.035z"/></svg>
